assets/googlecontaineroptimizedos/original.svg

<svg viewBox="0 0 24 24" xmlns="http://www.w3.org/2000/svg" fill="#4285F4"><path d="m12 0c-6.627 0-12 5.373-12 12s5.373 12 12 12 12-5.373 12-12-5.373-12-12-12zm0 21.6a9.6 9.6 0 0 1 -5.016-1.416l4.296-2.484v-5.4l-4.668-2.7v5.424l3.3 1.908-4.152 2.4a9.6 9.6 0 0 1 1.536-15.732v4.8l4.704 2.736 4.68-2.736-4.68-2.676-3.312 1.908v-4.668a9.6 9.6 0 0 1 12.372 5.64 9.72 9.72 0 0 1 .612 3.396v.084l-4.32-2.484-4.68 2.712v5.412l4.68-2.7v-3.816l4.14 2.4a9.6 9.6 0 0 1 -9.492 7.992z"/></svg>

<svg xmlns="http://www.w3.org/2000/svg" fill="#4285f4" viewBox="0 0 24 24"><path d="M12 0C5.373 0 0 5.373 0 12s5.373 12 12 12 12-5.373 12-12S18.627 0 12 0m0 21.6a9.6 9.6 0 0 1-5.016-1.416L11.28 17.7v-5.4L6.612 9.6v5.424l3.3 1.908-4.152 2.4A9.6 9.6 0 0 1 7.296 3.6v4.8L12 11.136 16.68 8.4 12 5.724 8.688 7.632V2.964a9.6 9.6 0 0 1 12.372 5.64A9.7 9.7 0 0 1 21.672 12v.084L17.352 9.6l-4.68 2.712v5.412l4.68-2.7v-3.816l4.14 2.4A9.6 9.6 0 0 1 12 21.6"/></svg>
